X:1
T: Maggie's Pancakes
M: 2/2
L: 1/8
R: Reel
C: Stuart Morrison
D: Tannahill Weavers, &quot;Dancing Feet&quot;
K: Bm
fB~B2 fgfe|dB~B2 GBdB|cAAd AAec|AfdB ecAe|
fB~B2 fgfe|dB~B2 GBdB|cABc ABce|afec B2de:|
|:~f2dB GBdB|caec dB~B2|~f2dB GBdB|caec Bcde|
fd~d2 fgfe|dB~B2 GBdB|cAdA eAce|afec B2de:|
